packages/katcn/src/icons/svg/userAdd.svg

<svg width="24" height="25" viewBox="0 0 24 25" fill="none" xmlns="http://www.w3.org/2000/svg">
<path d="M11.2 20.9761H5.49999C4.99999 20.9761 4.49999 20.6761 4.29999 20.2761C3.99999 19.8761 3.99999 19.4761 4.19999 18.9761C5.39999 16.1761 8.09999 14.2761 11.2 14.2761C14.3 14.2761 16.9 11.6761 16.9 8.57607C16.9 5.47607 14.3 2.97607 11.1 2.97607C7.99999 2.97607 5.39999 5.57607 5.39999 8.67607C5.39999 10.4761 6.19999 12.0761 7.49999 13.0761C5.19999 13.9761 3.19999 15.8761 2.19999 18.2761C1.79999 19.2761 1.89999 20.4761 2.49999 21.3761C3.19999 22.3761 4.19999 22.9761 5.39999 22.9761H11.1C11.7 22.9761 12.1 22.5761 12.1 21.9761C12.1 21.3761 11.7 20.9761 11.2 20.9761ZM7.39999 8.67607C7.39999 6.67607 9.09999 4.97607 11.1 4.97607C13.1 4.97607 14.8 6.67607 14.8 8.67607C14.8 10.6761 13.1 12.3761 11.1 12.3761C9.09999 12.3761 7.39999 10.6761 7.39999 8.67607Z" fill="black"/>
<path d="M21 17.2761H18.4V14.6761C18.4 14.0761 18 13.6761 17.4 13.6761C16.8 13.6761 16.4 14.0761 16.4 14.6761V17.2761H13.8C13.2 17.2761 12.8 17.6761 12.8 18.2761C12.8 18.8761 13.2 19.2761 13.8 19.2761H16.4V21.8761C16.4 22.4761 16.8 22.8761 17.4 22.8761C18 22.8761 18.4 22.4761 18.4 21.8761V19.2761H21C21.6 19.2761 22 18.8761 22 18.2761C22 17.6761 21.6 17.2761 21 17.2761Z" fill="black"/>
</svg>

<svg xmlns="http://www.w3.org/2000/svg" fill="none" viewBox="0 0 24 25"><path fill="#000" d="M11.2 20.976H5.5c-.5 0-1-.3-1.2-.7-.3-.4-.3-.8-.1-1.3 1.2-2.8 3.9-4.7 7-4.7s5.7-2.6 5.7-5.7-2.6-5.6-5.8-5.6c-3.1 0-5.7 2.6-5.7 5.7 0 1.8.8 3.4 2.1 4.4-2.3.9-4.3 2.8-5.3 5.2-.4 1-.3 2.2.3 3.1.7 1 1.7 1.6 2.9 1.6h5.7c.6 0 1-.4 1-1s-.4-1-.9-1m-3.8-12.3c0-2 1.7-3.7 3.7-3.7s3.7 1.7 3.7 3.7-1.7 3.7-3.7 3.7-3.7-1.7-3.7-3.7"/><path fill="#000" d="M21 17.276h-2.6v-2.6c0-.6-.4-1-1-1s-1 .4-1 1v2.6h-2.6c-.6 0-1 .4-1 1s.4 1 1 1h2.6v2.6c0 .6.4 1 1 1s1-.4 1-1v-2.6H21c.6 0 1-.4 1-1s-.4-1-1-1"/></svg>
